teeny/outline/framer.svg

<svg width="15" height="15" viewBox="0 0 15 15" fill="none" xmlns="http://www.w3.org/2000/svg">
<path d="M7.5 5.5H12.5V0.5H2.5L7.5 5.5ZM7.5 5.5H2.5V9.5L7.5 14.5V10.5H12.5L7.5 5.5Z" stroke="black" stroke-linejoin="round"/>
</svg>

<svg viewBox="0 0 15 15" xmlns="http://www.w3.org/2000/svg"><path fill="none" stroke="#000" stroke-linejoin="round" d="M7.5 5.5h5v-5h-10l5 5Zm0 0h-5v4l5 5v-4h5l-5-5Z"/></svg>
